X: 9
T:Atlantic Polka (first change)
R:Polka
M:2/4
L:1/16
K:D
A2|fdfa g2c2|e2d2 Add2|f2e2 Acef|g2fg fed2|
fdfa g2c2|e2d2 Add2|f2e2 gece|d2f2 d2:|
|:z2|A4 F3G|A2fg fed2|g4 e3c|d2fg fed2|
A4 F3G|A2fg fed2|g4 e3c|d2f2 d2:|
